X: 16365
T: Guns Of The Magnificent Seven, The
R: reel
M: 4/4
K: Adorian
|:EAAG ABcA|EAFA GAEA|EAAG ABcd|egdB BAAG:|
|:ABcd eA ~A2|gedc BAGB|ABcd eaaf|gedB BA A2:|
|:[M:3/4] egdB A2|[M:4/4] egdB GA B/c/d|eBdB A a2 f|gedB BA A2:|

